!!!!SEGMENT: pl-sa--l-1643--024_anonim--na-boze-cialo-o-sacrum-convivium.krn
!!!cenid: 16xx:1379
!!!COM: Anonim
!!!COM-rismID: pe30004985
!!!CDT:
!!!CNT:
!!!GTL: Na Boże ciało
!!!OTL: O sacrum convivium
!!!PDT:
!!!AGN: Sacred
!!!SMS-siglum: PL-SA
!!!SMS-shelfmark: L 1643
!!!SMS-shelfwork: 024 G
!!!SMS-variant:
!!!SMS-altvar:
!!!NIFC-rismSourceID: 1001064631
!!!NIFC-islandoraID:
!!!URL-pdf-islandora:
!!!URL-scan:
!!!ONB-nifc: UWAGA: 8 ksiąg. Primi chori: 1mus Cantus (x), C 2dus (92), C 3tius (x), Bassus (x); Secondi chori: Primus Cantus (x), C 2dus (x), Altus (x), Bassus (106). UWAGA: metrum 2/2 i 3/2. Nie dodawać pustych linii, chyba że w rękopisie pojawiają się dodatkowe oznaczenia dotyczące pełnej obsady (a 4, a 8 itp.)
!!!AIN: 2 empty
!!!key:
**kern	**text	**kern	**text
*part2	*part2	*part1	*part1
*staff2	*staff2	*staff1	*staff1
*Iempty	*	*Iempty	*
*I"Baſsus 2di Chori	*	*I"Cantus 2dus Primi Chori.	*
*I'II Coro B	*	*I'I Coro S 2	*
*clefC3	*	*clefC1	*
*k[b-]	*	*k[b-]	*
*F:	*	*F:	*
*M2/1	*	*M2/1	*
*met(c|)	*	*met(c|)	*
=1-	=1-	=1-	=1-
0f	O	1cc	O
.	.	0a	sa-
=2-	=2-	=2-	=2-
*lig	*	*	*
1c	sa-	.	.
1B-	.	1dd	-crum
*Xlig	*	*	*
=3-	=3-	=3-	=3-
!LO:TX:t=P:global:problem=rozdzielacz słów	!	!	!
1f,<	-crum	0a	con-
1F	con-	.	.
=4-	=4-	=4-	=4-
2.B-/	-ui-	2.dd\	-ui-
4B-/	-vi-	4dd\	-ui-
!	!	!LO:TX:t=P:global:problem=rozdzielacz słów	!
2f,<\	-um	2cc,<\	-um
2F/	con-	2cc\	con-
=5-	=5-	=5-	=5-
2c/	-ui-	2cc\	-ui-
2g\	-ui-	2b-\	-ui-
2d,<\	-um	2a,<\	-um
2g\	con-	2b-\	con-
=6-	=6-	=6-	=6-
2.c/	-ui-	2.g/	-ui-
4c/	-ui-	4g/	-ui-
!LO:SIC:v:l:s=-um,	!	!	!
2f,<\	-un,	2a\	-um,
2f\	in	2r	.
=7-	=7-	=7-	=7-
1c	quo	0r	.
2d\	chrÿ-	.	.
2B-/	-ſtuſ	.	.
=8-	=8-	=8-	=8-
2.c/	ſu-	1r	.
4c/	-mi-	.	.
*custos:c	*	*	*
2F/	-tur	2r	.
!LO:LB:g=original	!	!	!
2r	.	2cc\	re-
=9-	=9-	=9-	=9-
00r	.	2cc\	-co-
.	.	2cc\	-li-
.	.	1dd	-tur
=10-	=10-	=10-	=10-
.	.	1cc	me-
.	.	2a\	-mo-
.	.	2dd\	-ri-
=11-	=11-	=11-	=11-
*	*	*custos:b-	*
2r	.	2cc\	-a
!	!	!LO:LB:g=original	!
2c/	re-	2r	.
!LO:SIC:v:l:s=-co-	!	!	!
2f\	-ko-	0r	.
2f\	-li-	.	.
=12-	=12-	=12-	=12-
2c/	-tur	.	.
2A/	me-	.	.
2.d\	-mo-	1r	.
4d\	-ri-	.	.
=13-	=13-	=13-	=13-
2c/	-a	2r	.
2r	.	1b-	pa-
0r	.	.	.
.	.	2f/	-si-
=14-	=14-	=14-	=14-
.	.	1g	-o-
2r	.	2a\	-nis
1d\	paſ-	2r	.
=15-	=15-	=15-	=15-
.	.	0r	.
2c/	-si-	.	.
1B-	-o-	.	.
=16-	=16-	=16-	=16-
1A	-nis	1r	.
4G/	e-	2r	.
4A/	.	.	.
4B-/	.	2b-\	e-
4c/	.	.	.
=17-	=17-	=17-	=17-
1d	.	2a\	.
.	.	2dd\	.
1g	-iuſ,	1dd	-ius
=18-	=18-	=18-	=18-
*M3/2	*	*M3/2	*
0g	Menſ	0b-	mens
1c	im-	1cc	im-
=19-	=19-	=19-	=19-
0f	-ple-	0cc	-ple-
1f	-tur	1cc	-tur
=20-	=20-	=20-	=20-
*custos:B-	*	*	*
0B-	gra-	0b-	gra-
!LO:LB:g=original	!	!	!
1B-	-ci-	1b-	-ti-
=21-	=21-	=21-	=21-
1f,<	-a,	0cc	-a
1f	et	.	.
1c	fu-	1r	.
=22-	=22-	=22-	=22-
0d	-tu-	00.r	.
1A	-re	.	.
=23-	=23-	=23-	=23-
0d	glo-	.	.
1d	-ri-	.	.
=24-	=24-	=24-	=24-
1c,<	-ae	1r	.
1f	no-	1cc	no-
1c	-bis	1cc	-bis
=25-	=25-	=25-	=25-
0g	pig-	0b-	pig-
1g	-nuſ	1b-	-nus
=26-	=26-	=26-	=26-
*	*	*custos:b-	*
0.d	da-	0.a	da-
!	!	!LO:LB:g=original	!
=27-	=27-	=27-	=27-
*M2/1	*	*M2/1	*
*met(c|)	*	*met(c|)	*
2g,<\	-tur,	2b-\	-tur
2g\	Al-	2r	.
4f\	-le-	0r	.
4e\	-lu-	.	.
4d,</	-ia	.	.
4c/	Al-	.	.
=28-	=28-	=28-	=28-
2.g\	-le-	.	.
4g\	-lu-	.	.
2c/	-ia	2r	.
*custos:F	*	*	*
2r	.	2cc\	Al-
!LO:LB:g=original	!	!	!
=29-	=29-	=29-	=29-
0r	.	4dd\	-le-
.	.	4cc\	-lu-
.	.	4b-\	-ia
.	.	4a\	Al-
.	.	2.g/	-le-
.	.	4g/	-lu-
=30-	=30-	=30-	=30-
2r	.	2a,<\	-ia
2F/	Al-	2cc\	Al-
2.B-/	-le-	2.b-\	-le-
4B-/	-lu-	4b-\	-lu-
=31-	=31-	=31-	=31-
4F/	.	2cc,<\	-ia
4G/	.	.	.
4A/	.	2a\	Al-
4B-/	.	.	.
2c,</	-ia,	2.cc\	-le-
2c/	Al-	.	.
.	.	4cc\	-lu-
=32-	=32-	=32-	=32-
4G/	-le-	2b-,<\	-ia
4A/	.	.	.
4B-/	.	2b-\	Al-
4c/	.	.	.
2.d\	.	2.a\	-le-
4d\	-lu-	4a\	-lu-
=33-	=33-	=33-	=33-
2G,</	-ia,	2b-,<\	-ia
2g\	Al-	2b-\	Al-
2.c/	-le-	2.cc\	-le-
4c/	-lu-	4cc\	-lu-
=34-	=34-	=34-	=34-
4f\	-ia	2a\	-ia
4e\	.	.	.
*	*	*custos:b-	*
4d\	.	2cc\	Al-
4c,<\	.	.	.
!	!	!LO:LB:g=original	!
1B-	Al-	1.b-	-le-
=35-	=35-	=35-	=35-
2B-/	-le-	.	.
2B-/	-lu-	2b-\	-lu-
1fl;;	-ia;	1al;;	-ia
==	==	==	==
*-	*-	*-	*-
!!!system-decoration: [(s1)][(s2)]
!!!RDF**kern: > = above
!!!RDF**kern: < = below
!!!RDF**kern: l = terminal long
!!!ENC: Andrzej Kubiczek
!!!END: 2021-10-02
!!!ENC: Andrzej Kubiczek
!!!END: 2021-10-08
